svg/300/sharp/view_quilt-fill.svg

<svg xmlns="http://www.w3.org/2000/svg" width="48" height="48" viewBox="0 -960 960 960"><path d="M376.154-494.231v-245.768h443.845v245.768H376.154Zm235.768 274.23v-246.153h208.077v246.153H611.922Zm-235.768 0v-246.153h207.692v246.153H376.154Zm-236.153 0v-519.998h208.077v519.998H140.001Z"/></svg>

<svg xmlns="http://www.w3.org/2000/svg" width="48" height="48" viewBox="0 -960 960 960"><path d="M376.15-494.23V-740H820v245.77H376.15ZM611.92-220v-246.15H820V-220H611.92Zm-235.77 0v-246.15h207.7V-220h-207.7ZM140-220v-520h208.08v520H140Z"/></svg>
